X:1
T:Title
%%score { ( 1 3 ) | ( 2 4 ) }
L:1/8
Q:1/4=320
M:4/2
K:G
V:1 treble nm="Grand Piano"
V:3 treble 
V:2 bass 
V:4 bass 
V:1
 z8 [B,DG]8 | [DGB]4 [DGB]4 [DFA]4 [DGB]4 | [EGc]8 B4 z4 | A4 z4 z8 | z8 B8 | e4 ^G4 E4- [EB]4 | %6
 [Ec]8 [EA]8 | F16 | z8 F8 | z8 A8 | B8 G8 | e4 d4 c4 [^GB]4 | [EAc]8 [A,A]4- [A,EA]4 | %13
 [Dd]4 F4 [B,EG]4 [FA]4 | z8 [FA]8 | [B,G]16 |] %16
V:2
 z8 G,8 | G,4 G,4 D,4 G,4 | C,8 z4[K:treble] c4 | A,8 z8 | [G,DG]8 [G,B,D]4[K:bass] [F,A,]4 | %5
 E8 z8 | [A,,A,]8 [C,A,]8 | [D,A,D]16 | z8 D4 z4 | z8 D4 z4 | [G,B,D]8 [B,D]8 | %11
 [CG]4 [B,D^G]4 [A,EA]4[K:bass] [E,E]4 | [A,,A,]8 D,4 C,4 | z4 ^D4 z4 A,4 | G,4 B,4 z4 C4 | %15
 G,,16 |] %16
V:3
 x16 | x16 | z8 [DG]8 | d4- [Gd]4 [DFA]8 | B8 z4 ^D4 | z8 A4 z4 | x16 | x16 | z8 z4 C4 | G8 z4 C4 | %10
 x16 | x16 | z8 F4 z4 | x16 | [GB]8 D4 z4 | x16 |] %16
V:4
 x16 | x16 | z8 G,8[K:treble] | F,4 E,4 D,8 | x12[K:bass] x4 | [E,^G,]4 [D,B,]4 [C,A,]4 [B,,G,]4 | %6
 x16 | x16 | z8 [D,A,]8 | [E,G,B,]8 F,8 | x16 | x12[K:bass] x4 | x16 | [B,,B,]8 E,8 | D,8 D,8 | %15
 x16 |] %16

